public/assets/brave.svg

<svg width="37" height="43" viewBox="0 0 37 43" fill="none" xmlns="http://www.w3.org/2000/svg">
<path fill-rule="evenodd" clip-rule="evenodd" d="M35.0495 10.1405L36.0443 7.7071C36.0443 7.7071 34.7782 6.35522 33.2408 4.8231C31.7034 3.29097 28.4476 4.19222 28.4476 4.19222L24.7397 6.10352e-05H18.2283H11.7168L8.00888 4.19222C8.00888 4.19222 4.75315 3.29097 3.21572 4.8231C1.6783 6.35522 0.41218 7.7071 0.41218 7.7071L1.40699 10.1405L0.140869 13.7455C0.140869 13.7455 3.86461 27.8009 4.30097 29.5173C5.16012 32.897 5.74796 34.2038 8.18976 35.9162C10.6316 37.6286 15.063 40.6027 15.7865 41.0533C16.51 41.504 17.4143 42.2715 18.2283 42.2715C19.0422 42.2715 19.9466 41.504 20.6701 41.0533C21.3935 40.6027 25.825 37.6286 28.2668 35.9162C30.7086 34.2038 31.2964 32.897 32.1555 29.5173C32.5918 27.8009 36.3156 13.7455 36.3156 13.7455L35.0495 10.1405Z" fill="url(#paint0_linear_76:242)"/>
<path fill-rule="evenodd" clip-rule="evenodd" d="M27.4075 6.85105C27.4075 6.85105 32.1768 12.5965 32.1768 13.8244C32.1768 15.0524 31.5768 15.3765 30.9736 16.0148C30.3704 16.6532 27.7359 19.4411 27.3976 19.7991C27.0592 20.1571 26.3549 20.6999 26.7692 21.677C27.1835 22.654 27.7947 23.8973 27.115 25.1583C26.4353 26.4193 25.2709 27.261 24.5248 27.1219C23.7787 26.9826 22.0265 26.0701 21.3822 25.6533C20.7378 25.2365 18.6955 23.558 18.6955 22.9158C18.6955 22.2736 20.8066 21.1206 21.1966 20.8586C21.5867 20.5967 23.3656 19.5827 23.4021 19.1847C23.4384 18.7866 23.4246 18.6699 22.8996 17.6865C22.3746 16.7029 21.4292 15.3905 21.5865 14.5173C21.7439 13.6442 23.2687 13.1901 24.3568 12.7806C25.4448 12.3712 27.5397 11.5978 27.8014 11.4776C28.0632 11.3573 27.9955 11.2427 27.2027 11.1678C26.41 11.0929 24.1603 10.7953 23.146 11.0771C22.1318 11.3588 20.399 11.7874 20.2587 12.0147C20.1183 12.242 19.9945 12.2497 20.1386 13.0338C20.2827 13.8179 21.0248 17.5802 21.0968 18.2485C21.1689 18.9167 21.3098 19.3585 20.5868 19.5233C19.8636 19.688 18.6464 19.9741 18.2282 19.9741C17.8099 19.9741 16.5926 19.688 15.8696 19.5233C15.1464 19.3585 15.2873 18.9167 15.3594 18.2485C15.4315 17.5802 16.1735 13.8179 16.3177 13.0338C16.4618 12.2497 16.3379 12.242 16.1977 12.0147C16.0573 11.7874 14.3245 11.3588 13.3102 11.0771C12.296 10.7953 10.0463 11.0929 9.25357 11.1678C8.4608 11.2427 8.39315 11.3573 8.65488 11.4776C8.9166 11.5978 11.0116 12.3712 12.0995 12.7806C13.1876 13.1901 14.7124 13.6442 14.8698 14.5173C15.0272 15.3905 14.0816 16.7029 13.5567 17.6865C13.0318 18.6699 13.0178 18.7866 13.0543 19.1847C13.0906 19.5827 14.8696 20.5967 15.2597 20.8586C15.6497 21.1206 17.7607 22.2736 17.7607 22.9158C17.7607 23.558 15.7185 25.2365 15.0742 25.6533C14.4298 26.0701 12.6776 26.9826 11.9315 27.1219C11.1854 27.261 10.021 26.4193 9.34129 25.1583C8.66166 23.8973 9.27283 22.654 9.68703 21.677C10.1013 20.6999 9.39709 20.1571 9.05868 19.7991C8.72044 19.4411 6.08584 16.6532 5.48262 16.0148C4.87941 15.3765 4.27954 15.0524 4.27954 13.8244C4.27954 12.5965 9.04882 6.85105 9.04882 6.85105C9.04882 6.85105 13.0733 7.6171 13.6159 7.6171C14.1585 7.6171 15.3342 7.16648 16.4194 6.80598C17.5047 6.44548 18.2282 6.44287 18.2282 6.44287C18.2282 6.44287 18.9517 6.44548 20.0369 6.80598C21.1221 7.16648 22.2978 7.6171 22.8404 7.6171C23.3831 7.6171 27.4075 6.85105 27.4075 6.85105ZM23.8322 28.8285C24.1273 29.0127 23.9473 29.36 23.6784 29.5494C23.4095 29.7389 19.7955 32.5277 19.4448 32.8359C19.094 33.1442 18.5786 33.6533 18.2281 33.6533C17.8777 33.6533 17.3622 33.1442 17.0115 32.8359C16.6607 32.5277 13.0468 29.7389 12.7779 29.5494C12.5089 29.36 12.3289 29.0127 12.6241 28.8285C12.9194 28.6444 13.843 28.1796 15.1176 27.5223C16.3919 26.8651 17.9803 26.3064 18.2281 26.3064C18.476 26.3064 20.0643 26.8651 21.3388 27.5223C22.6132 28.1796 23.5369 28.6444 23.8322 28.8285Z" fill="white"/>
<mask id="mask0_76:242" style="mask-type:alpha" maskUnits="userSpaceOnUse" x="3" y="0" width="31" height="8">
<path d="M28.4474 4.19205L24.7395 0H18.2281H11.7166L8.00873 4.19205C8.00873 4.19205 4.753 3.29082 3.21558 4.8229C3.21558 4.8229 7.55654 4.4324 9.04875 6.85066C9.04875 6.85066 13.0732 7.6167 13.6158 7.6167C14.1584 7.6167 15.3341 7.16609 16.4194 6.8056C17.5046 6.44511 18.2281 6.44249 18.2281 6.44249C18.2281 6.44249 18.9516 6.44511 20.0368 6.8056C21.1221 7.16609 22.2977 7.6167 22.8404 7.6167C23.383 7.6167 27.4074 6.85066 27.4074 6.85066C28.8996 4.4324 33.2406 4.8229 33.2406 4.8229C31.7032 3.29082 28.4474 4.19205 28.4474 4.19205Z" fill="white"/>
</mask>
<g mask="url(#mask0_76:242)">
<path d="M28.4474 4.19205L24.7395 0H18.2281H11.7166L8.00873 4.19205C8.00873 4.19205 4.753 3.29082 3.21558 4.8229C3.21558 4.8229 7.55654 4.4324 9.04875 6.85066C9.04875 6.85066 13.0732 7.6167 13.6158 7.6167C14.1584 7.6167 15.3341 7.16609 16.4194 6.8056C17.5046 6.44511 18.2281 6.44249 18.2281 6.44249C18.2281 6.44249 18.9516 6.44511 20.0368 6.8056C21.1221 7.16609 22.2977 7.6167 22.8404 7.6167C23.383 7.6167 27.4074 6.85066 27.4074 6.85066C28.8996 4.4324 33.2406 4.8229 33.2406 4.8229C31.7032 3.29082 28.4474 4.19205 28.4474 4.19205Z" fill="url(#paint1_linear_76:242)"/>
</g>
<defs>
<linearGradient id="paint0_linear_76:242" x1="0.140869" y1="21.434" x2="36.3156" y2="21.434" gradientUnits="userSpaceOnUse">
<stop stop-color="#FF5500"/>
<stop offset="0.409877" stop-color="#FF5500"/>
<stop offset="0.581981" stop-color="#FF2000"/>
<stop offset="1" stop-color="#FF2000"/>
</linearGradient>
<linearGradient id="paint1_linear_76:242" x1="3.86065" y1="3.86209" x2="33.2406" y2="3.86209" gradientUnits="userSpaceOnUse">
<stop stop-color="#FF452A"/>
<stop offset="1" stop-color="#FF2000"/>
</linearGradient>
</defs>
</svg>

<svg width="37" height="43" fill="none" xmlns="http://www.w3.org/2000/svg"><path fill-rule="evenodd" clip-rule="evenodd" d="m35.05 10.14.994-2.433s-1.266-1.352-2.803-2.884c-1.538-1.532-4.793-.63-4.793-.63L24.74 0H11.717L8.009 4.192s-3.256-.901-4.793.631A130.906 130.906 0 0 0 .412 7.707l.995 2.433-1.266 3.605S3.865 27.801 4.3 29.517c.86 3.38 1.447 4.687 3.889 6.4 2.442 1.712 6.873 4.686 7.597 5.136.723.451 1.627 1.219 2.441 1.219.814 0 1.719-.768 2.442-1.219.723-.45 5.155-3.424 7.597-5.137 2.442-1.712 3.03-3.019 3.889-6.399.436-1.716 4.16-15.771 4.16-15.771l-1.267-3.606Z" fill="url(#a)"/><path fill-rule="evenodd" clip-rule="evenodd" d="M27.407 6.851s4.77 5.746 4.77 6.973c0 1.228-.6 1.553-1.203 2.19L27.398 19.8c-.339.358-1.043.9-.629 1.878.415.977 1.026 2.22.346 3.481-.68 1.261-1.844 2.103-2.59 1.964-.746-.14-2.498-1.052-3.143-1.469-.644-.416-2.687-2.095-2.687-2.737 0-.642 2.112-1.795 2.502-2.057.39-.262 2.169-1.276 2.205-1.674.036-.398.023-.515-.502-1.498-.525-.984-1.47-2.297-1.313-3.17.157-.873 1.682-1.327 2.77-1.736 1.088-.41 3.183-1.183 3.444-1.303.262-.12.195-.235-.598-.31-.793-.075-3.043-.373-4.057-.09-1.014.28-2.747.71-2.887.937-.14.227-.265.235-.12 1.019.144.784.886 4.546.958 5.214.072.669.213 1.11-.51 1.275-.723.165-1.94.451-2.359.451-.418 0-1.635-.286-2.358-.45-.724-.166-.583-.607-.51-1.276.072-.668.814-4.43.958-5.214.144-.784.02-.792-.12-1.02-.14-.227-1.873-.655-2.888-.937-1.014-.282-3.264.016-4.056.09-.793.076-.86.19-.6.31.263.12 2.358.894 3.446 1.304 1.088.41 2.612.863 2.77 1.736.157.873-.788 2.186-1.313 3.17-.525.983-.54 1.1-.503 1.498.037.398 1.816 1.412 2.206 1.674.39.262 2.5 1.415 2.5 2.057 0 .642-2.042 2.32-2.686 2.737-.644.417-2.396 1.33-3.143 1.469-.746.139-1.91-.703-2.59-1.964-.68-1.26-.068-2.504.346-3.481.414-.977-.29-1.52-.628-1.878l-3.576-3.784c-.604-.639-1.203-.963-1.203-2.19 0-1.228 4.769-6.974 4.769-6.974s4.024.766 4.567.766c.543 0 1.718-.45 2.803-.811 1.086-.36 1.81-.363 1.81-.363s.723.002 1.808.363c1.085.36 2.26.811 2.803.811.543 0 4.567-.766 4.567-.766Zm-3.575 21.977c.295.185.115.532-.154.721-.268.19-3.883 2.979-4.233 3.287-.351.308-.866.817-1.217.817-.35 0-.866-.509-1.216-.817-.351-.308-3.965-3.097-4.234-3.287-.27-.189-.45-.536-.154-.72.295-.185 1.219-.65 2.494-1.307 1.274-.657 2.862-1.216 3.11-1.216.248 0 1.836.56 3.11 1.216 1.275.658 2.199 1.122 2.494 1.306Z" fill="#fff"/><mask id="b" style="mask-type:alpha" maskUnits="userSpaceOnUse" x="3" y="0" width="31" height="8"><path d="M28.447 4.192 24.74 0H11.716L8.009 4.192s-3.256-.901-4.793.63c0 0 4.34-.39 5.833 2.029 0 0 4.024.766 4.567.766.542 0 1.718-.45 2.803-.811 1.086-.36 1.81-.364 1.81-.364s.723.003 1.808.364c1.085.36 2.26.81 2.803.81.543 0 4.567-.765 4.567-.765 1.493-2.419 5.834-2.028 5.834-2.028-1.538-1.532-4.794-.631-4.794-.631Z" fill="#fff"/></mask><g mask="url(#b)"><path d="M28.447 4.192 24.74 0H11.716L8.009 4.192s-3.256-.901-4.793.63c0 0 4.34-.39 5.833 2.029 0 0 4.024.766 4.567.766.542 0 1.718-.45 2.803-.811 1.086-.36 1.81-.364 1.81-.364s.723.003 1.808.364c1.085.36 2.26.81 2.803.81.543 0 4.567-.765 4.567-.765 1.493-2.419 5.834-2.028 5.834-2.028-1.538-1.532-4.794-.631-4.794-.631Z" fill="url(#c)"/></g><defs><linearGradient id="a" x1=".141" y1="21.434" x2="36.316" y2="21.434" gradientUnits="userSpaceOnUse"><stop stop-color="#F50"/><stop offset=".41" stop-color="#F50"/><stop offset=".582" stop-color="#FF2000"/><stop offset="1" stop-color="#FF2000"/></linearGradient><linearGradient id="c" x1="3.861" y1="3.862" x2="33.241" y2="3.862" gradientUnits="userSpaceOnUse"><stop stop-color="#FF452A"/><stop offset="1" stop-color="#FF2000"/></linearGradient></defs></svg>
